icons/plexis/48/testdrive.svg

<svg viewBox="0 0 48 48" xmlns="http://www.w3.org/2000/svg" xmlns:xlink="http://www.w3.org/1999/xlink">
  <linearGradient id="a" gradientTransform="matrix(0 -1 1 0 -.0000015 47.999998)" gradientUnits="userSpaceOnUse" x1="1" x2="47">
    <stop offset="0" stop-color="#f29d6a"/>
    <stop offset="1" stop-color="#f4a97c"/>
  </linearGradient>
  <path d="m47 24c0 22.703-.297 23-23 23-22.703 0-23-.297-23-23 0-22.703.297-23 23-23 22.703 0 23 .297 23 23z" fill="url(#a)"/>
  <path d="m25 10a15 15 0 0 0-15 15 15 15 0 0 0  15 15 15 15 0 0 0  15-15 15 15 0 0 0-15-15m0 3a12 12 0 0 1 11.516 8.648c-3.306-1.038-7.256-1.648-11.516-1.648-4.258 0-8.208.61-11.516 1.648a12 12 0 0 1 11.516-8.648m-10.5 11c1.105 0 2 1.567 2 3.5 0 1.865-.836 3.376-1.887 3.48a12 12 0 0 1-1.607-5.787c.366-.726.897-1.193 1.494-1.193m20.9 0c .647 0 1.214.546 1.58 1.379a12 12 0 0 1-1.598 5.617c-1.092-.017-1.982-1.574-1.982-3.496 0-1.933.895-3.5 2-3.5zm-10.4 5c4.153 0 7.566 2.175 7.961 4.959a12 12 0 0 1-7.961 3.041 12 12 0 0 1-7.96-3.037c.392-2.783 3.805-4.963 7.96-4.963" opacity=".1"/>
  <path d="m24 9a15 15 0 0 0-15 15 15 15 0 0 0  15 15 15 15 0 0 0  15-15 15 15 0 0 0-15-15m0 3a12 12 0 0 1 11.516 8.648c-3.306-1.038-7.256-1.648-11.516-1.648-4.258 0-8.208.61-11.516 1.648a12 12 0 0 1 11.516-8.648m-10.5 11c1.105 0 2 1.567 2 3.5 0 1.865-.836 3.376-1.887 3.48a12 12 0 0 1-1.607-5.787c.366-.726.897-1.193 1.494-1.193m20.9 0c .647 0 1.214.546 1.58 1.379a12 12 0 0 1-1.598 5.617c-1.092-.017-1.982-1.574-1.982-3.496 0-1.933.895-3.5 2-3.5zm-10.4 5c4.153 0 7.566 2.175 7.961 4.959a12 12 0 0 1-7.961 3.041 12 12 0 0 1-7.96-3.037c.392-2.783 3.805-4.963 7.96-4.963" fill="#606060"/>
  <path d="m24 19c-2.974 0-5.792.303-8.352.836a10 8.5 0 0 0-1.518 3.359c.793.464 1.369 1.76 1.369 3.305 0 .726-.131 1.394-.348 1.951a10 8.5 0 0 0 1.992 2.223c1.398-1.6 3.942-2.674 6.855-2.674 2.916 0 5.461 1.075 6.859 2.678a10 8.5 0 0 0 1.928-2.125c-.241-.577-.387-1.283-.387-2.053 0-1.608.623-2.949 1.467-3.359a10 8.5 0 0 0-1.514-3.303c-2.56-.534-5.379-.838-8.354-.838" fill-opacity=".125"/>
  <path d="m24 21a5 3 0 0 0-5 3 5 3 0 0 0  5 3 5 3 0 0 0  5-3 5 3 0 0 0-5-3zm-1.396 1v .896h.891v.641h-.891v1.195c0 .136.009.246.025.328h-.002c.016.078.038.134.063.172.026.036.056.058.096.074.043.017.095.029.16.029.12 0 .213-.017.273-.043.077-.035.131-.062.16-.076l.1-.047.121.627-.064.039c-.054.032-.128.063-.236.1-.116.043-.246.064-.389.064-.167 0-.31-.023-.43-.076l-.002-.002h-.002c-.116-.057-.212-.145-.285-.258-.073-.112-.125-.248-.154-.402v-.002c-.026-.154-.037-.327-.037-.521v-2.613l.604-.125zm3.396 0v3.844l-.063.021c-.089.03-.201.061-.336.09-.139.03-.295.045-.471.045-.17 0-.327-.033-.467-.1-.139-.066-.259-.163-.357-.285-.099-.123-.175-.271-.229-.441h-.002v-.002c-.051-.174-.074-.366-.074-.576 0-.199.02-.383.063-.553v-.002c.045-.17.11-.319.197-.445.087-.126.196-.224.322-.295.13-.071.277-.109.438-.109.128 0 .245.021.348.064.036.015.054.032.084.047v-1.189zm-.934 1.779c-.094 0-.167.02-.229.059v.002h-.002c-.061.037-.11.087-.15.158l-.002.002c-.041.068-.07.153-.09.256-.02.105-.029.218-.029.34 0 .277.055.479.158.617.104.137.231.199.408.199.098 0 .178-.007.238-.016.036-.007.056-.011.082-.018v-1.451c-.035-.03-.077-.061-.143-.094-.073-.036-.153-.055-.242-.055z" fill-opacity=".275"/>
  <path d="m24 21a5 3 0 0 0-5 3 5 3 0 0 0  .986 1.783 5 3 0 0 1-.486-1.283 5 3 0 0 1  5-3 5 3 0 0 1  4.01 1.215 5 3 0 0 0-4.51-1.715zm-.9 1.5l-.496.104v.292h.496zm3.4 0l-.5.104v3.24l-.049.017v.018c-.026.006-.045.011-.082.017-.016.003-.045.002-.064.004-.065.019-.122.037-.203.055-.14.03-.296.045-.472.045-.157 0-.3-.032-.431-.088.036.067.06.148.106.208.098.12.215.214.355.28.142.067.299.1.469.1.177 0 .333-.015.471-.045.14-.029.248-.059.338-.09l.062-.021zm-3.006.896v.141h-.89v1.195c0 .136.009.246.025.328h-.002c.016.08.037.13.062.17.026.04.056.061.096.077.043.017.095.029.16.029.075 0 .115-.015.165-.025 0-.03-.01-.051-.01-.081v-1.19h.894v-.644zm1.616.393c-.01.005-.02.007-.03.012-.124.07-.233.169-.32.299-.083.12-.145.261-.19.421-.001.026-.006.048-.006.075 0 .277.056.484.159.614.097.13.217.188.377.196-.02-.092-.04-.196-.04-.306 0-.127.01-.239.03-.344.02-.103.05-.188.09-.256l.01-.002c.04-.071.08-.121.146-.158h.002v-.002c.03-.019.076-.02.113-.029v-.381c-.035-.03-.077-.062-.142-.094-.059-.029-.129-.039-.199-.045zm-1.131 1.881l-.1.047c-.029.014-.084.041-.16.076-.034.014-.1.016-.153.023l-.031.02c-.054.032-.128.063-.236.1-.119.043-.249.064-.389.064-.118 0-.209-.027-.303-.053.027.073.045.153.084.213.074.12.17.205.286.262h.002l.001.002c.12.053.26.076.43.076.143 0 .273-.021.389-.064.108-.037.182-.068.241-.1l.06-.039z" fill-opacity=".098"/>
</svg>

<svg xmlns="http://www.w3.org/2000/svg" viewBox="0 0 48 48">
 <defs>
  <linearGradient id="linearGradient3764" x1="1" x2="47" gradientUnits="userSpaceOnUse" gradientTransform="matrix(0,-1,1,0,-1.5e-6,47.999998)">
   <stop style="stop-color:#f29d6a;stop-opacity:1"/>
   <stop offset="1" style="stop-color:#f4a97c;stop-opacity:1"/>
  </linearGradient>
 </defs>
 <g>
  
  
  
 </g>
 <g>
  <path d="m 47,24 C 47,46.703 46.703,47 24,47 1.297,47 1,46.703 1,24 1,1.297 1.297,1 24,1 46.703,1 47,1.297 47,24 z" style="fill:url(#linearGradient3764);fill-opacity:1"/>
 </g>
 <g>
  
 </g>
 <path d="M 25 10 A 15 15 0 0 0 10 25 15 15 0 0 0 25 40 15 15 0 0 0 40 25 15 15 0 0 0 25 10 m 0 3 a 12 12 0 0 1 11.516 8.648 C 33.21 20.61 29.26 20 25 20 20.742 20 16.792 20.61 13.484 21.648 A 12 12 0 0 1 25 13 M 14.5 24 c 1.105 0 2 1.567 2 3.5 0 1.865 -0.836 3.376 -1.887 3.48 a 12 12 0 0 1 -1.607 -5.787 C 13.372 24.467 13.903 24 14.5 24 m 20.9 0 c 0.647 0 1.214 0.546 1.58 1.379 a 12 12 0 0 1 -1.598 5.617 C 34.29 30.979 33.4 29.422 33.4 27.5 c 0 -1.933 0.895 -3.5 2 -3.5 z M 25 29 c 4.153 0 7.566 2.175 7.961 4.959 A 12 12 0 0 1 25 37 12 12 0 0 1 17.04 33.963 C 17.432 31.18 20.845 29 25 29" style="fill:#000;opacity:0.1;fill-opacity:1;stroke:none"/>
 <path d="M 24 9 A 15 15 0 0 0 9 24 15 15 0 0 0 24 39 15 15 0 0 0 39 24 15 15 0 0 0 24 9 M 24 12 a 12 12 0 0 1 11.516 8.648 C 32.21 19.61 28.26 19 24 19 19.742 19 15.792 19.61 12.484 20.648 A 12 12 0 0 1 24 12 M 13.5 23 c 1.105 0 2 1.567 2 3.5 0 1.865 -0.836 3.376 -1.887 3.48 a 12 12 0 0 1 -1.607 -5.787 C 12.372 23.467 12.903 23 13.5 23 m 20.9 0 c 0.647 0 1.214 0.546 1.58 1.379 a 12 12 0 0 1 -1.598 5.617 C 33.29 29.979 32.4 28.422 32.4 26.5 c 0 -1.933 0.895 -3.5 2 -3.5 z M 24 28 c 4.153 0 7.566 2.175 7.961 4.959 A 12 12 0 0 1 24 36 12 12 0 0 1 16.04 32.963 C 16.432 30.18 19.845 28 24 28" style="fill:#606060;opacity:1;fill-opacity:1;stroke:none"/>
 <path d="m 24 19 c -2.974 0 -5.792 0.303 -8.352 0.836 a 10 8.5 0 0 0 -1.518 3.359 c 0.793 0.464 1.369 1.76 1.369 3.305 c 0 0.726 -0.131 1.394 -0.348 1.951 a 10 8.5 0 0 0 1.992 2.223 c 1.398 -1.6 3.942 -2.674 6.855 -2.674 c 2.916 0 5.461 1.075 6.859 2.678 a 10 8.5 0 0 0 1.928 -2.125 c -0.241 -0.577 -0.387 -1.283 -0.387 -2.053 c 0 -1.608 0.623 -2.949 1.467 -3.359 a 10 8.5 0 0 0 -1.514 -3.303 c -2.56 -0.534 -5.379 -0.838 -8.354 -0.838" style="fill:#000;opacity:1;fill-opacity:0.125;stroke:none"/>
 <path d="m 24 21 a 5 3 0 0 0 -5 3 5 3 0 0 0 5 3 5 3 0 0 0 5 -3 5 3 0 0 0 -5 -3 z m -1.396 1 0 0.896 0.891 0 0 0.641 -0.891 0 0 1.195 c 0 0.136 0.009 0.246 0.025 0.328 l -0.002 0 c 0.016 0.078 0.038 0.134 0.063 0.172 0.026 0.036 0.056 0.058 0.096 0.074 0.043 0.017 0.095 0.029 0.16 0.029 0.12 0 0.213 -0.017 0.273 -0.043 0.077 -0.035 0.131 -0.062 0.16 -0.076 l 0.1 -0.047 0.121 0.627 -0.064 0.039 c -0.054 0.032 -0.128 0.063 -0.236 0.1 -0.116 0.043 -0.246 0.064 -0.389 0.064 -0.167 0 -0.31 -0.023 -0.43 -0.076 l -0.002 -0.002 -0.002 0 c -0.116 -0.057 -0.212 -0.145 -0.285 -0.258 -0.073 -0.112 -0.125 -0.248 -0.154 -0.402 l 0 -0.002 c -0.026 -0.154 -0.037 -0.327 -0.037 -0.521 l 0 -2.613 0.604 -0.125 z M 26 22 l 0 3.844 -0.063 0.021 c -0.089 0.03 -0.201 0.061 -0.336 0.09 C 25.462 25.985 25.306 26 25.13 26 c -0.17 0 -0.327 -0.033 -0.467 -0.1 -0.139 -0.066 -0.259 -0.163 -0.357 -0.285 -0.099 -0.123 -0.175 -0.271 -0.229 -0.441 l -0.002 0 0 -0.002 c -0.051 -0.174 -0.074 -0.366 -0.074 -0.576 0 -0.199 0.02 -0.383 0.063 -0.553 l 0 -0.002 c 0.045 -0.17 0.11 -0.319 0.197 -0.445 0.087 -0.126 0.196 -0.224 0.322 -0.295 0.13 -0.071 0.277 -0.109 0.438 -0.109 0.128 0 0.245 0.021 0.348 0.064 0.036 0.015 0.054 0.032 0.084 0.047 l 0 -1.189 L 26 22 m -0.934 1.779 c -0.094 0 -0.167 0.02 -0.229 0.059 l 0 0.002 -0.002 0 c -0.061 0.037 -0.11 0.087 -0.15 0.158 l -0.002 0.002 c -0.041 0.068 -0.07 0.153 -0.09 0.256 -0.02 0.105 -0.029 0.218 -0.029 0.34 0 0.277 0.055 0.479 0.158 0.617 0.104 0.137 0.231 0.199 0.408 0.199 0.098 0 0.178 -0.007 0.238 -0.016 0.036 -0.007 0.056 -0.011 0.082 -0.018 l 0 -1.451 c -0.035 -0.03 -0.077 -0.061 -0.143 -0.094 -0.073 -0.036 -0.153 -0.055 -0.242 -0.055 z" style="fill:#000;opacity:1;fill-opacity:0.275;stroke:none"/>
 <path d="M 24 21 A 5 3 0 0 0 19 24 A 5 3 0 0 0 19.986 25.783 A 5 3 0 0 1 19.5 24.5 A 5 3 0 0 1 24.5 21.5 A 5 3 0 0 1 28.51 22.715 A 5 3 0 0 0 24 21 z M 23.1 22.5 L 22.604 22.604 L 22.604 22.896 L 23.1 22.896 L 23.1 22.5 z M 26.5 22.5 L 26 22.604 L 26 25.844 L 25.951 25.861 L 25.951 25.879 C 25.925 25.885 25.906 25.89 25.869 25.896 C 25.853 25.899 25.824 25.898 25.805 25.9 C 25.74 25.919 25.683 25.937 25.602 25.955 C 25.462 25.985 25.306 26 25.13 26 C 24.973 26 24.83 25.968 24.699 25.912 C 24.735 25.979 24.759 26.06 24.805 26.12 C 24.903 26.24 25.02 26.334 25.16 26.4 C 25.302 26.467 25.459 26.5 25.629 26.5 C 25.806 26.5 25.962 26.485 26.1 26.455 C 26.24 26.426 26.348 26.396 26.438 26.365 L 26.5 26.344 L 26.5 22.5 z M 23.494 23.396 L 23.494 23.537 L 22.604 23.537 L 22.604 24.732 C 22.604 24.868 22.613 24.978 22.629 25.06 L 22.627 25.06 C 22.643 25.14 22.664 25.19 22.689 25.23 C 22.715 25.27 22.745 25.291 22.785 25.307 C 22.828 25.324 22.88 25.336 22.945 25.336 C 23.02 25.336 23.06 25.321 23.11 25.311 C 23.11 25.281 23.1 25.26 23.1 25.23 L 23.1 24.04 L 23.994 24.04 L 23.994 23.396 L 23.494 23.396 z M 25.11 23.789 C 25.1 23.794 25.09 23.796 25.08 23.801 C 24.956 23.871 24.847 23.97 24.76 24.1 C 24.677 24.22 24.615 24.361 24.57 24.521 C 24.569 24.547 24.564 24.569 24.564 24.596 C 24.564 24.873 24.62 25.08 24.723 25.21 C 24.82 25.34 24.94 25.398 25.1 25.406 C 25.08 25.314 25.06 25.21 25.06 25.1 C 25.06 24.973 25.07 24.861 25.09 24.756 C 25.11 24.653 25.14 24.568 25.18 24.5 L 25.19 24.498 C 25.23 24.427 25.27 24.377 25.336 24.34 L 25.338 24.34 L 25.338 24.338 C 25.368 24.319 25.414 24.318 25.451 24.309 L 25.451 23.928 C 25.416 23.898 25.374 23.866 25.309 23.834 C 25.25 23.805 25.18 23.795 25.11 23.789 z M 23.979 25.67 L 23.879 25.717 C 23.85 25.731 23.795 25.758 23.719 25.793 C 23.685 25.807 23.619 25.809 23.566 25.816 L 23.535 25.836 C 23.481 25.868 23.407 25.899 23.299 25.936 C 23.18 25.979 23.05 26 22.91 26 C 22.792 26 22.701 25.973 22.607 25.947 C 22.634 26.02 22.652 26.1 22.691 26.16 C 22.765 26.28 22.861 26.365 22.977 26.422 L 22.979 26.422 L 22.98 26.424 C 23.1 26.477 23.24 26.5 23.41 26.5 C 23.553 26.5 23.683 26.479 23.799 26.436 C 23.907 26.399 23.981 26.368 24.04 26.336 L 24.1 26.297 L 23.979 25.67 z" style="fill:#000;opacity:1;fill-opacity:0.098;stroke:none"/>
</svg>
